packages/core/src/svgs/apl.svg

<svg width="24" height="24" viewBox="0 0 24 24" fill="none" xmlns="http://www.w3.org/2000/svg">
<g clip-path="url(#clip0_31_5971)">
<path d="M0 0H24V24H0V0Z" fill="url(#paint0_linear_31_5971)"/>
<path d="M10.0813 5.58202C9.98186 5.5923 9.933 5.61759 9.91028 5.66773C9.876 5.74059 9.90386 5.8023 10.4859 6.9783C10.6384 7.2843 10.7713 7.56973 10.7816 7.61044C10.8073 7.70687 10.8073 7.8123 10.7803 7.91044C10.77 7.9533 10.6466 8.2203 10.5073 8.50402C10.1571 9.21544 9.99 9.56002 8.58386 12.464L6.90086 15.9376C6.62228 16.5106 6.44443 16.8907 6.43543 16.934C6.417 17.0214 6.43543 17.069 6.504 17.1084C6.54943 17.1346 6.57214 17.1363 7.28957 17.1402C8.15957 17.1444 8.31986 17.1359 8.43386 17.0819C8.58943 17.0107 8.62114 16.9632 8.87057 16.4497C8.994 16.1952 9.25628 15.6577 9.45257 15.2553C9.64928 14.8524 10.1516 13.8153 10.5694 12.9522C11.4291 11.177 11.9383 10.133 11.9541 10.1172C11.994 10.0773 12.3429 10.7849 14.937 16.1622C15.1333 16.5697 15.3167 16.9327 15.3429 16.9683C15.3686 17.0043 15.4131 17.0489 15.4427 17.0686C15.5486 17.1427 15.5499 17.1427 16.437 17.1427C17.1643 17.1427 17.2714 17.1402 17.4107 17.1174C17.4647 17.1103 17.5183 17.1008 17.5714 17.0887C17.5515 17.0214 17.5276 16.9553 17.4999 16.8907C17.4163 16.6807 17.3486 16.541 15.3643 12.4572C14.4517 10.5844 13.5423 8.71009 12.636 6.8343C12.1174 5.75859 12.1294 5.78259 12.0339 5.6943C11.8971 5.56744 11.9267 5.5713 10.9809 5.5713C10.5364 5.5713 10.1306 5.57644 10.0813 5.58202Z" fill="white"/>
</g>
<defs>
<linearGradient id="paint0_linear_31_5971" x1="4.28571" y1="1.28571" x2="21" y2="26.1429" gradientUnits="userSpaceOnUse">
<stop stop-color="#5E9FF9"/>
<stop offset="1" stop-color="#0050F9"/>
</linearGradient>
<clipPath id="clip0_31_5971">
<rect width="24" height="24" fill="white"/>
</clipPath>
</defs>
</svg>

<svg xmlns="http://www.w3.org/2000/svg" width="24" height="24" fill="none" viewBox="0 0 24 24"><g clip-path="url(#a)"><path fill="url(#b)" d="M0 0h24v24H0z"/><path fill="#fff" d="M10.081 5.582c-.1.01-.148.036-.17.086-.035.073-.007.134.575 1.31.152.306.285.592.296.632a.6.6 0 0 1-.002.3c-.01.043-.133.31-.273.594-.35.711-.517 1.056-1.923 3.96L6.9 15.938c-.279.573-.457.953-.466.996-.018.087 0 .135.069.174.045.027.068.028.786.032.87.004 1.03-.004 1.144-.058.155-.071.187-.119.437-.632a1144.975 1144.975 0 0 0 1.699-3.498c.86-1.775 1.368-2.819 1.384-2.835.04-.04.389.668 2.983 6.045.196.408.38.77.406.806a.5.5 0 0 0 .1.1c.106.075.107.075.994.075.727 0 .834-.003.974-.026a2 2 0 0 0 .16-.028 2 2 0 0 0-.071-.198c-.084-.21-.151-.35-2.136-4.434q-1.368-2.81-2.728-5.623c-.519-1.075-.507-1.051-.602-1.14-.137-.127-.107-.123-1.053-.123-.445 0-.85.005-.9.011"/></g><defs><linearGradient id="b" x1="4.286" x2="21" y1="1.286" y2="26.143" gradientUnits="userSpaceOnUse"><stop stop-color="#5E9FF9"/><stop offset="1" stop-color="#0050F9"/></linearGradient><clipPath id="a"><path fill="#fff" d="M0 0h24v24H0z"/></clipPath></defs></svg>
